common/src/main/resources/settings/redux.svg

<!--
  - The MIT License (MIT)
  -
  - Copyright (c) 2015-2023 Elior "Mallowigi" Boukhobza
  -
  - Permission is hereby granted, free of charge, to any person obtaining a copy
  - of this software and associated documentation files (the "Software"), to deal
  - in the Software without restriction, including without limitation the rights
  - to use, copy, modify, merge, publish, distribute, sublicense, and/or sell
  - copies of the Software, and to permit persons to whom the Software is
  - furnished to do so, subject to the following conditions:
  -
  - The above copyright notice and this permission notice shall be included in all
  - copies or substantial portions of the Software.
  -
  - THE SOFTWARE IS PROVIDED "AS IS", WITHOUT WARRANTY OF ANY KIND, EXPRESS OR
  - IMPLIED, INCLUDING BUT NOT LIMITED TO THE WARRANTIES OF MERCHANTABILITY,
  - FITNESS FOR A PARTICULAR PURPOSE AND NONINFRINGEMENT. IN NO EVENT SHALL THE
  - AUTHORS OR COPYRIGHT HOLDERS BE LIABLE FOR ANY CLAIM, DAMAGES OR OTHER
  - LIABILITY, WHETHER IN AN ACTION OF CONTRACT, TORT OR OTHERWISE, ARISING FROM,
  - OUT OF OR IN CONNECTION WITH THE SOFTWARE OR THE USE OR OTHER DEALINGS IN THE
  - SOFTWARE.
  -
  -->

<svg version="1.1" xmlns="http://www.w3.org/2000/svg" x="0px" y="0px" width="24px" height="24px"
     viewBox="0 0 512 512" preserveAspectRatio="xMidYMid meet">
  <path fill="#ba8fff"
        d="M290.5827332,477.715332c9.087616-6.4911194,22.0698853-16.8769531,29.2101135-23.368042c124.4559326,49.4433899,165.0598145-47.1943054,161.8180847-84.0771484c-3.5895996-40.8399353-54.298645-157.390976-226.728302-157.39328c-8.1076813,19.0032654-31.8166199,28.5365295-51.4269409,17.1775208c-24.0652771-13.9395142-24.0652771-48.9773712,0-62.9168243c18.6949158-10.8288269,41.1114502-2.667511,50.1887207,14.5818939c104.6848145-0.5327454,222.0458069,43.9302521,254.8640442,167.6486816C532.177063,438.5942993,432.8744812,542.6099243,290.5827332,477.715332z M354.9891663,351.5217896c17.3190308-2.0410767,32.3324585-16.4964905,32.3324585-36.0848083c0-27.8788757-30.4049072-45.3978577-54.5975037-31.4584045c-21.2230225,12.2284546-23.8233948,40.6903076-7.8106384,56.9048157C267.4715881,447.9807129,139.180481,489.8563232,71.4811935,449.20755C33.9913254,426.6974487-4.669035,346.1156616,85.4626617,271.9462585c-2.596489-8.4384766-6.4911652-22.7190094-8.4384766-33.1048584C-85.0232086,360.9573059,31.6251106,555.2648926,214.3358307,479.5959473C263.7343445,459.1376648,317.2936401,423.3825073,354.9891663,351.5217896z M157.3849945,392.9820862c24.2267151,13.9394531,54.6745605-3.5794373,54.6745605-31.4584045c0-23.2654114-21.2043915-39.2989502-42.3022614-35.8728027C35.7418594,75.3250809,317.8963318-73.329895,354.1958618,163.5441284l32.455719,9.7367249C363.0523987-17.2608185,220.5851746,0.1739823,174.9452362,38.7649002c-34.2060699,28.922966-125.6453094,130.6958313-31.1728516,305.0267029C134.6686707,360.1824341,139.2055969,382.5221252,157.3849945,392.9820862z"/>
</svg>

<svg xmlns="http://www.w3.org/2000/svg" width="24" height="24" viewBox="0 0 512 512"><path fill="#ba8fff" d="M290.583 477.715c9.087-6.49 22.07-16.877 29.21-23.368 124.456 49.444 165.06-47.194 161.818-84.077-3.59-40.84-54.299-157.39-226.728-157.393-8.108 19.003-31.817 28.536-51.427 17.177-24.066-13.94-24.066-48.977 0-62.916 18.695-10.83 41.111-2.668 50.188 14.581 104.685-.532 222.046 43.93 254.864 167.65 23.67 89.225-75.634 193.24-217.925 128.346m64.406-126.193c17.32-2.041 32.333-16.497 32.333-36.085 0-27.879-30.405-45.398-54.598-31.458-21.223 12.228-23.823 40.69-7.81 56.904C267.471 447.981 139.18 489.856 71.48 449.208c-37.49-22.51-76.15-103.092 13.982-177.262-2.597-8.438-6.492-22.719-8.439-33.105-162.047 122.116-45.399 316.424 137.312 240.755 49.398-20.458 102.958-56.213 140.653-128.074m-197.604 41.46c24.227 13.94 54.675-3.58 54.675-31.458 0-23.266-21.205-39.3-42.303-35.873C35.742 75.325 317.897-73.33 354.196 163.544l32.456 9.737C363.052-17.261 220.585.174 174.945 38.765 140.74 67.688 49.3 169.46 143.772 343.792c-9.103 16.39-4.566 38.73 13.613 49.19"/></svg>
